brandFactory_export/1.Light/Conferencia_1Light.svg

<?xml version="1.0" encoding="UTF-8"?>
<svg width="24px" height="24px" viewBox="0 0 24 24" version="1.1" xmlns="http://www.w3.org/2000/svg" xmlns:xlink="http://www.w3.org/1999/xlink">
    <title>1.Light/Conferencia_1Light</title>
    <g id="Symbols" stroke="none" stroke-width="1" fill="none" fill-rule="evenodd">
        <g id="1.Light/Conferencia_1Light" fill="#5CB615" fill-rule="nonzero">
            <path d="M20.7193277,7.89915966 L18.8168067,7.89915966 C18.810084,7.89915966 18.8033613,7.89579832 18.7966387,7.89579832 L4.93109244,7.89579832 C4.92436975,7.89579832 4.91764706,7.89915966 4.90756303,7.89915966 L3.00504202,7.89915966 L3.00504202,6.26218487 L20.7193277,6.26218487 L20.7193277,7.89915966 Z M4.93109244,10.3798319 L18.7966387,10.3798319 L18.7966387,8.87731092 L4.93109244,8.87731092 L4.93109244,10.3798319 Z M7.46890756,20.205042 L16.2554622,20.205042 L16.2554622,11.3647059 L7.46890756,11.3647059 L7.46890756,20.205042 Z M18.7697479,22.6420168 L4.95462185,22.6420168 L4.95462185,21.1865546 L18.7697479,21.1865546 L18.7697479,22.6420168 Z M9.17983193,0.981512605 L9.88571429,1.68739496 L8.72605042,2.84033613 L8.02016807,2.13781513 L9.17983193,0.981512605 Z M13.8252101,1.68403361 L14.5310924,0.978151261 L15.6907563,2.13445378 L14.9848739,2.83697479 L13.8252101,1.68403361 Z M20.7193277,5.28067227 L17.3546218,5.28067227 L17.3546218,3.97647059 C17.3546218,3.84537815 17.3008403,3.7210084 17.210084,3.6302521 L16.3966387,2.82016807 C16.5747899,2.63529412 16.6789916,2.39327731 16.6789916,2.13781513 C16.6789916,1.8789916 16.5747899,1.62689076 16.389916,1.44537815 L15.2302521,0.28907563 C15.0453782,0.104201681 14.7932773,0 14.5344538,0 C14.2722689,0 14.0235294,0.104201681 13.8386555,0.28907563 L13.1294118,0.994957983 C12.7462185,1.37815126 12.7462185,2 13.1294118,2.38319328 L14.2890756,3.53613445 C14.4806723,3.72773109 14.7327731,3.82521008 14.9848739,3.82521008 C15.2369748,3.82521008 15.4890756,3.72773109 15.6806723,3.53613445 L15.7008403,3.51596639 L16.3697479,4.18151261 L16.3697479,5.28403361 L7.35462185,5.28403361 L7.35462185,4.18151261 L8.01680672,3.52268908 L8.0302521,3.53613445 C8.22184874,3.72773109 8.47394958,3.82521008 8.72605042,3.82521008 C8.97815126,3.82521008 9.2302521,3.72773109 9.42184874,3.53613445 L10.5815126,2.38319328 C10.9647059,2 10.9647059,1.37815126 10.5815126,0.994957983 L9.87563025,0.28907563 C9.6907563,0.104201681 9.43865546,0 9.17983193,0 C8.91764706,0 8.66554622,0.104201681 8.48067227,0.28907563 L7.3210084,1.44537815 C7.13613445,1.6302521 7.03193277,1.8789916 7.03193277,2.13781513 C7.03193277,2.39663866 7.13613445,2.64537815 7.31764706,2.82689076 L6.51092437,3.6302521 C6.41680672,3.7210084 6.36638655,3.84537815 6.36638655,3.97647059 L6.36638655,5.28067227 L3.00504202,5.28067227 C2.4605042,5.28067227 2.02016807,5.71764706 2.02016807,6.26218487 L2.02016807,7.89915966 C2.02016807,8.44033613 2.46386555,8.88067227 3.00504202,8.88067227 L3.94621849,8.88067227 L3.94621849,10.3831933 C3.94621849,10.9243697 4.38655462,11.3647059 4.93109244,11.3647059 L6.48739496,11.3647059 L6.48739496,20.2084034 L4.95798319,20.2084034 C4.41344538,20.2084034 3.97310924,20.6453782 3.97310924,21.189916 L3.97310924,22.6453782 C3.97310924,23.1865546 4.41344538,23.6268908 4.95798319,23.6268908 L18.7731092,23.6268908 C19.3176471,23.6268908 19.7579832,23.189916 19.7579832,22.6453782 L19.7579832,21.189916 C19.7579832,20.6487395 19.3176471,20.2084034 18.7731092,20.2084034 L17.2436975,20.2084034 L17.2436975,11.3680672 L17.2436975,11.3647059 L18.8,11.3647059 C19.3445378,11.3647059 19.7848739,10.9277311 19.7848739,10.3831933 L19.7848739,8.88067227 L20.7226891,8.88067227 C21.2672269,8.88067227 21.707563,8.44033613 21.707563,7.89915966 L21.707563,6.26218487 C21.7042017,5.7210084 21.2638655,5.28067227 20.7193277,5.28067227 Z" id="Conferencia_1Light"></path>
        </g>
    </g>
</svg>

<svg width="24" height="24" viewBox="0 0 24 24" xmlns="http://www.w3.org/2000/svg"><path d="M20.72 7.9h-1.903c-.007 0-.014-.004-.02-.004H4.93c-.007 0-.013.003-.023.003H3.005V6.262h17.714V7.9zM4.93 10.38h13.866V8.877H4.93v1.503zm2.538 9.825h8.786v-8.84H7.47v8.84zm11.3 2.437H4.956v-1.455H18.77v1.455zM9.18.982l.707.705-1.16 1.153-.706-.702L9.18.982zm4.646.702l.706-.706 1.16 1.156-.706.703-1.16-1.153zm6.894 3.597h-3.364V3.976a.491.491 0 00-.145-.346l-.813-.81a.985.985 0 00.282-.682.974.974 0 00-.29-.693L15.23.29a.982.982 0 00-1.392 0l-.709.706a.982.982 0 000 1.388l1.16 1.153a.983.983 0 001.392 0l.02-.02.669.666v1.102H7.355V4.182l.662-.66.013.014a.983.983 0 001.392 0l1.16-1.153a.982.982 0 000-1.388L9.876.289a.988.988 0 00-1.395 0L7.32 1.445a.977.977 0 00-.003 1.382l-.807.803a.477.477 0 00-.145.346v1.305H3.005a.981.981 0 00-.985.981V7.9c0 .541.444.982.985.982h.941v1.502c0 .541.44.982.985.982h1.556v8.843H4.958a.981.981 0 00-.985.982v1.455c0 .542.44.982.985.982h13.815a.981.981 0 00.985-.982V21.19a.983.983 0 00-.985-.982h-1.53v-8.843H18.8a.981.981 0 00.985-.982V8.881h.938c.544 0 .985-.44.985-.982V6.262a.988.988 0 00-.989-.981z" fill="#5CB615" fill-rule="nonzero"/></svg>
